X: 1
T: Junior Crehan's
M: 4/4
L: 1/8
R: hornpipe
K: Ador
|:AB|ceed ABdB|ABAG E2ED|GABd dBeB|dBAB G2AB|
c2ed B2dB|ABAG E2ed|B2BA GB(3BAG|A2AG A2:|
|:(3Bcd|eaag a3b|aged e2d2|(3efg fa ~g3a|gedB G2AB|
c2ed B2dB|ABAG E2ed|B2BA GB(3BAG|A2AG A2:|
